!!!COM: Mozart, Wolfgang Amadeus
!!!CDT: 1756/01/27/-1791/12/05/
!!!CNT: German
!!!OTL: Piano Sonata No. 7 in C major
!!!SCT1: K<sup>1</sup> 309
!!!SCT2: K<sup>6</sup> 284b
!!!OMV: 1
!!!OMD: Allegro con spirito
!!!ODT: 1777///
**kern	**kern	**dynam
*staff2	*staff1	*staff1/2
*>[A,A,B]	*>[A,A,B]	*>[A,A,B]
*>norep[A,B]	*>norep[A,B]	*>norep[A,B]
*>A	*>A	*>A
*clefF4	*clefG2	*clefG2
*k[]	*k[]	*k[]
*C:	*C:	*C:
*met(c)	*met(c)	*met(c)
*M4/4	*M4/4	*M4/4
*MM160	*MM160	*MM160
=1-	=1-	=1-
.	(>32cqLLL	.
.	32eq	.
.	32gqJJJ	.
2CC 2C	2cc)	f
2GGG 2GG	2g	.
=2	=2	=2
(4.E	(4.ee	.
16FLL	16ffLL	.
16DJJ	16ddJJ	.
4C)	4cc)	.
4r	4r	.
*clefG2	*	*
=3	=3	=3
(8eL	4gg	p
8g	.	.
8e	4gg	.
8gJ	.	.
8c#L	4r	.
8g	.	.
8c#	4aa	.
8gJ	.	.
=4	=4	=4
8dL	(16ggLK	.
.	8.ffJ)	.
8g	.	.
8d	4ff	.
8gJ	.	.
8BL	4r	.
8g	.	.
8B	4gg	.
8gJ	.	.
=5	=5	=5
8cnL	(16ffLK	.
.	8.eeJ)	.
8g	.	.
8c	4ee	.
8gJ	.	.
8eL	4r	.
8g	.	.
8e	(8ggL	.
8gJ)	8eeJ)	.
=6	=6	=6
1f 1a	(8cc#L	.
.	8dd	.
.	8ff	.
.	8eeJ	.
.	8cc#L	.
.	8dd	.
.	8ff	.
.	8eeJ	.
*clefF4	*	*
=7	=7	=7
4r	8cc#L	.
.	8dd	.
4F 4A 4d	8ff	.
.	8aaJ	.
4G 4c 4e	8ggL	.
.	8ee	.
4G 4B 4d	8ff	.
.	8ddJ)	.
=8	=8	=8
.	(>32cnqLL	.
.	32eq	.
.	32gqJJ	.
2CC 2C	2ccn)	f
2GGG 2GG	2g	.
=9	=9	=9
(4.E	(4.ee	.
16FLL	16ffLL	.
16DJJ	16ddJJ	.
4C)	4cc)	.
4r	4r	.
*clefG2	*	*
=10	=10	=10
8eL	4gg	p
8g	.	.
8e	4gg	.
8gJ	.	.
8c#L	4r	.
8g	.	.
8c#	4aa	.
8gJ	.	.
=11	=11	=11
8dL	(16ggLK	.
.	8.ffJ)	.
8g	.	.
8d	4ff	.
8gJ	.	.
8BL	8r	.
8g	(8ff#L	.
8B	8aa	.
8gJ	8ggJ)	.
=12	=12	=12
8cnL	(16ffnLK	.
.	8.eeJ)	.
8g	.	.
8c	4ee	.
8gJ	.	.
8eL	8r	.
8g	(8eeL	.
8e	8gg	.
8gJ	8eeJ)	.
=13	=13	=13
(2g 2b-	(4.cc#z	.
.	16ddLL	.
.	16eeJJ	.
4f) 4a	4dd)	.
4r	8r	.
.	8ff	.
=14	=14	=14
(2g 2b-	(4.eez	.
.	16ffLL	.
.	16ggJJ	.
4a) 4cc	4ff)	.
4r	4r	.
*clefF4	*	*
=15	=15	=15
(8AL	8cc 8cccL	f
8c	8cc 8cccJ	.
8A	2cc 2ccc	p
8cJ	.	.
8FL	.	.
8c	.	.
8F	(8bbL	.
8cJ	8aaJ)	.
=16	=16	=16
8EL	8cc 8ggL	f
8c	8cc 8ggJ	.
8E	2cc 2gg	.
8cJ	.	.
8CL	.	p
8c	.	.
8C	(8ffL	.
8cJ	[8eeJ)	.
=17	=17	=17
8FL	16eeLL]	.
.	(16dd	.
8A	16ff	.
.	16eeJJ	.
8F	16ggLL	.
.	16ff	.
8dJ)	16ee	.
.	16ddJJ	.
(8GL	4cc)	.
8e)	.	.
(8G	(<4bt	.
8dJ)	.	.
.	16aqLL	.
.	16bqJJ)	.
=18	=18	=18
(8AL	8cc 8cccL	f
8c	8cc 8cccJ	.
8A	4.cc 4.ccc	.
8cJ	.	.
8FL	.	p
8c	(16dddLL	.
.	16cccJJ	.
8F	8bb'L)	.
8cJ	8aa'J	.
=19	=19	=19
8EL	8cc 8ggL	f
8c	8cc 8ggJ	.
8E	4.cc 4.gg	.
8cJ	.	.
8CL	.	p
8c	(16aaLL	.
.	16ggJJ	.
8C	8ff'L)	.
8cJ	[8eeJ	.
=20	=20	=20
8FL	(16eeLL]	.
.	16dd	.
8c	16aa	.
.	16gg#JJ	.
8F	16bbLL	.
.	16aa	.
8dJ)	16ggn	.
.	16ffJJ	.
(8GL	4ee)	.
8c)	.	.
(8G	(4ddT	.
8BJ)	.	.
.	16ccqLL	.
.	16ddqJJ	.
=21	=21	=21
8c 8eL	4cc)	fp
8c 8e	.	.
8c 8e	8r	.
.	(32ddqq	.
8c 8eJ	16ccLL)	.
.	16bJJ	.
8c 8eL	8ccL	.
8c 8e	8dd#'	<
8c 8e	8ee'	.
8c 8eJ	8ff#'J	.
=22	=22	=22
8c 8eL	8gg'L	.
8c 8e	8bb'	.
8c 8e	8ccc'	.
8c 8eJ	8ddd#'J	.
8c 8eL	4eee	.
8c 8e	.	.
8c 8e	4r	.
8c 8eJ	.	.
=23	=23	=23
8B 8dL	4ddn: 4gg: 4dddn:	fp
8B 8d	.	.
8B 8d	8r	.
.	(32ccqq	.
8B 8dJ	(16bLL)	.
.	16aJJ)	.
8B 8dL	8b'L	.
8B 8d	8cc#'	<
8B 8d	8dd'	.
8B 8dJ	8ff#'J	.
=24	=24	=24
8B 8dL	8gg'L	.
8B 8d	8aa#'	.
8B 8d	8bb'	.
8B 8dJ	8ccc#'J	.
8B 8dL	4ddd	.
8B 8d	.	.
8B 8d	4r	.
8B 8dJ	.	.
=25	=25	=25
8F# 8A 8dL	4ccn: 4ff#: 4cccn:	fp
8F# 8A 8d	.	.
8F# 8A 8d	8r	.
.	(32bqq	.
8F# 8A 8dJ	(16aLL)	.
.	16g#JJ)	.
8F# 8A 8dL	8a'L	.
8F# 8A 8d	8b'	<
8F# 8A 8d	8cc	.
8F# 8A 8dJ	8ee#'J	.
=26	=26	=26
8F# 8A 8dL	8ff#'L	.
8F# 8A 8d	8gg#'	.
8F# 8A 8d	8aa'	.
8F# 8A 8dJ	8bb'J	.
8F# 8A 8dL	4ccc	.
8F# 8A 8d	.	.
8F# 8A 8d	4r	.
8F# 8A 8dJ	.	.
=27	=27	=27
8GL	(16cccLL	f
.	16bb	.
8d	16aa	.
.	16ggJJ)	.
8A	(16ggLL	.
.	16ff#	.
8dJ	16ee	.
.	16ddJJ)	.
.	(>32ddqLLL	.
.	32ff#Xq	.
.	32aaqJJJ	.
8F#L	2cccz)	.
8d	.	.
8D	.	.
8dJ	.	.
=28	=28	=28
8GL	(16cccLL	.
.	16bb	.
8d	16aa	.
.	16ggJJ)	.
8A	(16ggLL	.
.	16ff#	.
8dJ	16ee	.
.	16ddJJ)	.
.	(>32ddqLLL	.
.	32ff#Xq	.
.	32aaqJJJ	.
8F#L	2cccz)	.
8d	.	.
8D	.	.
8dJ	.	.
=29	=29	=29
4G 4d	(16bbLL	f
.	16aa	.
.	16ccc	.
.	16bbJJ	.
4r	8dddL)	.
.	8ff#'J	.
4B 4d	(16ggLL	.
.	16ff#	.
.	16aa	.
.	16ggJJ	.
4r	8bbL)	.
.	8dd#'J	.
=30	=30	=30
4c 4g	(16eeLL	.
.	16dd#	.
.	16ff#	.
.	16eeJJ	.
4r	8ggL)	.
.	8b'J	.
4e 4g	(16ccLL	.
.	16b	.
.	16ddn	.
.	16ccJJ	.
4r	8eeL)	.
.	8g#'J	.
=31	=31	=31
8.AL	8.aL>	.
16Bk	16bk	.
8.c	8.cc	.
16BJk	16bJk	.
8.AL	8.aL	.
16Gnk	16gnk	.
8.F#	8.f#	.
16EJk	16eJk	.
=32	=32	=32
(8DL	(8dL	.
16F#L	16f#L	.
16AJJ	16aJJ	.
8d'L)	8dd'L)	.
8d'J	8dd'J	.
4d	4dd	.
4r	4r	.
=33	=33	=33
!LO:TX:i:t=legato	!	!
8c#L	1r	.
8d	.	.
8c#	.	.
8dJ	.	.
8c#L	.	.
8d	.	.
8c#	.	.
8dJ	.	.
=34	=34	=34
8cnL	1r	>
8d	.	.
8B	.	.
8dJ	.	.
8cL	.	.
8d	.	.
8A	.	.
8dJ	.	.
=35	=35	=35
8GL	8bb'L	p
8d	8ccc'	.
8G	8ddd'	.
8dJ	8bb'J	.
8BL	2gg	.
8d	.	.
8B	.	.
8dJ	.	.
=36	=36	=36
8cL	8aa'L	.
8d	8bb'	.
8c	8ccc'	.
8dJ	8aa'J	.
8AL	2ff#	.
8d	.	.
8A	.	.
8dJ	.	.
=37	=37	=37
8BL	(16ggLK	.
.	8ff#J)	.
8d	.	.
.	16r	.
8G	(16eeLK	.
.	8ddJ)	.
8dJ	.	.
.	16r	.
8AL	(16bLK	.
.	8ccJ)	.
8d	.	.
.	16r	.
8F#	4r	.
8dJ	.	.
=38	=38	=38
(8GL	(16ccLK	.
.	8bJ)	.
8d	.	.
.	16r	.
8E	(16aLK	.
.	8gJ)	.
8c#J	.	.
.	16r	.
8DL	(16bLK	.
.	8aJ)	.
8d)	.	.
.	16r	.
8cn'	4r	.
8A'J	.	.
=39	=39	=39
(8GL	8bb'L	.
8d	8ccc'	.
8G	8ddd'	.
8dJ	8bb'J	.
8BL	2gg	.
8d	.	.
8B	.	.
8dJ	.	.
=40	=40	=40
8cL	8aa'L	.
8d	8bb'	.
8c	8ccc'	.
8dJ	8aa'J	.
8AL	2ff#	.
8d	.	.
8A	.	.
8dJ	.	.
=41	=41	=41
8BL	(16ggLK	.
.	8.ff#J)	.
8d	.	.
8G	(16eeLK	.
.	8.ddJ)	.
8dJ	.	.
8AL	(16bLK	.
.	8.ccJ)	.
8d	.	.
8F#	4r	.
8dJ	.	.
=42	=42	=42
8GL	(16ccLK	.
.	8.bJ)	.
8d	.	.
8E	(16aLK	.
.	8.gJ)	.
8c#J	.	.
8DL	(16eeLK	.
.	8.ddJ)	.
8d	.	.
8Cn	4r	.
8cnJ)	.	.
=43	=43	=43
(16BBLL	2dd 2ddd	f
16G	.	.
16F#	.	.
16GJJ	.	.
16ALL	.	.
16G	.	.
16F#	.	.
16GJJ	.	.
4BB)	(8ccc'L	.
.	8bb'	.
4r	8aa'	.
.	8gg'J)	.
=44	=44	=44
(16CLL	2ee 2eee	.
16G	.	.
16F#	.	.
16GJJ	.	.
16ALL	.	.
16G	.	.
16F#	.	.
16GJJ)	.	.
4C	(8ddd'L	.
.	8ccc'	.
4r	8bb'	.
.	8aa'J)	.
=45	=45	=45
(8DL	(16bbLL	p
.	16ccc	.
8G	16ddd	.
.	16bbJJ	.
8B	8gg')	.
8GJ	8r	.
8DL	(16aaLL	.
.	16bb	.
8A	16ccc	.
.	16aaJJ	.
8c	8ff#')	.
8AJ)	8r	.
=46	=46	=46
(16BBLL	2dd 2ddd	f
16G	.	.
16F#	.	.
16GJJ	.	.
16ALL	.	.
16G	.	.
16F#	.	.
16GJJ	.	.
4BB)	(16cccLL	.
.	16ddd	.
.	16ccc	.
.	16bbJJ	.
4r	16aaLL	.
.	16bb	.
.	16aa	.
.	16ggJJ)	.
=47	=47	=47
(16CLL	2ee 2eee	.
16G	.	.
16F#	.	.
16GJJ	.	.
16ALL	.	.
16G	.	.
16F#	.	.
16GJJ	.	.
4C)	(16dddLL	.
.	16eee	.
.	16ddd	.
.	16cccJJ	.
4r	16bbLL	.
.	16ccc	.
.	16bb	.
.	16aaJJ	.
*clefG2	*	*
=48	=48	=48
(8dL	8bbL	.
8g	8ggJ)	.
8e	4cccz	.
8gJ	.	.
8dL	(8bbL	.
8g	8ggJ)	.
8c	4eeez	.
8gJ	.	.
=49	=49	=49
8BL	(8dddL	.
8g	8ggJ)	.
8e	4cccz	.
8gJ	.	.
8dL	(8bbL	.
8g	8ggJ)	.
8c	4eeez	.
8gJ)	.	.
=50	=50	=50
8B 8d 8g#L	2ffn 2fffn	f
8B 8d 8g#	.	.
8B 8d 8g#	.	.
8B 8d 8g#J	.	.
8B 8d 8g#L	4ff 4fff	.
8B 8d 8g#	.	.
8B 8d 8g#	4ff 4fff	.
8B 8d 8g#J	.	.
=51	=51	=51
4c 4e 4a	8ee (8eeeL	.
.	8ddd'J)	.
4r	(8cccLM	.
.	8bb'J)	.
2r	(8aaLM	.
.	8gg'J)	.
.	(8ff#Lm	.
.	8ee'J)	.
*clefF4	*	*
=52	=52	=52
(16DLL	(8ddL	.
16B	.	.
16Gn	16eeL	.
16BJJ	16ff#JJ	.
16DLL	16ggLL	.
16B	16aa	.
16G	16bb	.
16BJJ	16cccJJ	.
16DLL	16dddLL	.
16B	16ccc	.
16G	16bb	.
16BJJ	16cccJJ	.
16DLL	16dddLL	.
16B	16bb	.
16G	16aa	.
16BJJ	16ggJJ)	.
=53	=53	=53
16DLL	1aaTT	.
16c	.	.
16F#	.	.
16cJJ	.	.
16DLL	.	.
16c	.	.
16F#	.	.
16cJJ	.	.
16DLL	.	.
16c	.	.
16F#	.	.
16cJJ	.	.
16DLL	.	.
16c	.	.
16F#	.	.
16cJJ)	.	.
.	(16ggqLL	.
.	16aaqJJ)	.
=54	=54	=54
4G 4B	4gg	.
*clefG2	*	*
4g'	8r	.
.	(8b	p
4a'	8ddL	.
.	8ccJ)	.
4f#'	8r	.
.	(8a	.
=55	=55	=55
4g'	8ccL	.
.	8bJ)	.
4e'	8r	.
.	(8g	.
4c'	8bL	.
.	8aJ)	.
4d'	8r	.
.	(8f#	.
=56	=56	=56
4B'	8aL	.
.	8gJ)	.
*clefF4	*	*
4GG 4G	(16bLL	f
.	16cc	.
.	16dd	.
.	16bJJ	.
4AA 4A	16ccLL	.
.	16dd	.
.	16ee	.
.	16ccJJ	.
4FF# 4F#	16aaLL	.
.	16bb	.
.	16ccc	.
.	16aaJJ	.
=57	=57	=57
4GG 4G	16bbLL	.
.	16ccc	.
.	16ddd	.
.	16bbJJ)	.
4EE 4E	(>16gLL	.
.	16a	.
.	16b	.
.	16gJJ	.
4CC 4C	16aLL	.
.	16b	.
.	16cc	.
.	16aJJ	.
4DD 4D	16ff#LL	.
.	16gg	.
.	16aa	.
.	16ff#JJ	.
=58	=58	=58
4GG	4gg)	.
4GG 4G	4dd: 4gg: 4bb:	.
4GG 4G	4b: 4dd: 4gg:	.
4r	4r	.
=59:|!	=59:|!	=59:|!
*>B	*>B	*>B
.	(32GqLLL	.
.	32B-q	.
.	32dqJJJ	.
2GGG 2GG	2g)	f
2DD	2d	.
=60	=60	=60
(4.BB-	(4.b-	.
16CLL	16ccLL	.
16AAJJ	16aJJ	.
4GG)	4g)	.
4r	4r	.
*clefG2	*	*
=61	=61	=61
(4.b-	(4.dd	p
16ccLL	16ee-LL	.
16aJJ	16ccJJ	.
4g)	4b-)	.
4r	4r	.
=62	=62	=62
(4.dd	(4.bb-	pp
16ee-LL	16cccLL	.
16ccJJ	16aaJJ	.
4b-)	4gg)	.
4r	4r	.
=63	=63	=63
(8B- 8dL	4r	.
8g	.	.
8B- 8d	(4gg	p
8gJ	.	.
8B- 8dL	4ddd	.
8g	.	.
8B- 8d	4eeen)	.
8gJ	.	.
=64	=64	=64
8A 8enL	(2ddd	.
8g	.	.
8A 8e	.	.
8gJ	.	.
8A 8eL	4ccc#)	.
8g	.	.
8A 8e	4r	.
8gJ	.	.
=65	=65	=65
8B- 8dL	8r	.
8g	16r	.
.	16gg	.
8B- 8d	(8.ggTL	.
8gJ	.	.
.	32ff#LL	.
.	32ggJJJ	.
8B- 8dL	4ddd	.
8g	.	.
8B- 8d	4eee)	.
8gJ	.	.
=66	=66	=66
8A 8eL	(2ddd	.
8g	.	.
8A 8e	.	.
8gJ	.	.
8A 8eL	4ccc#)	.
8g	.	.
8A 8e	4r	.
8gJ)	.	.
*clefF4	*clefF4	*clefF4
=67	=67	=67
.	32DqLLL	.
.	32Fq	.
.	32AqJJJ	.
2DD	2d	.
2AA	2A	.
*	*clefG2	*clefG2
=68	=68	=68
(4.F	(4.f	.
16GLL	16gLL	.
16EJJ	16eJJ	.
4D)	4d)	.
4r	4r	.
=69	=69	=69
*^	*	*
(8AL	4F	8r	.
8d	.	16r	.
.	.	16dd	p
8A	4F	(8.ddTL	.
8dJ	.	.	.
.	.	32cc#LL	.
.	.	32ddJJJ	.
8AL	4F	4aa	.
8d	.	.	.
8A	4F	4bbn)	.
8dJ	.	.	.
=70	=70	=70	=70
8BnL	4E	(2aa	.
8d	.	.	.
8B	4E	.	.
8dJ	.	.	.
8BL	4E	4gg#)	.
8d	.	.	.
8B	4E	4r	.
8dJ	.	.	.
=71	=71	=71	=71
8AL	4F	8r	.
8d	.	(8aaL	.
8A	4F	8ddd	.
8dJ	.	8ccc#J	.
8AL	4F	8eeeL	.
8d	.	8ddd	.
8A	4F	8cccn	.
8dJ	.	8bbJ)	.
=72	=72	=72	=72
8BL	4E	(2aa	.
8d	.	.	.
8B	4E	.	.
8dJ	.	.	.
.	.	32bbqLLL	.
.	.	32aaqJJJ	.
8BL	4E	4gg#)	.
8d	.	.	.
8B	4E	4r	.
8dJ)	.	.	.
*v	*v	*	*
=73	=73	=73
!LO:TX:i:t=legato	!	!
16ALL	2cc 2ccc	f
16e	.	.
16c	.	.
16eJJ	.	.
16ALL	.	.
16e	.	.
16c	.	.
16eJJ	.	.
16ALL	2a 2aa	.
16f	.	.
16c	.	.
16fJJ	.	.
16ALL	.	.
16f	.	.
16c	.	.
16fJJ	.	.
=74	=74	=74
16ALL	(4.ddd#	.
16f#	.	.
16c	.	.
16f#JJ	.	.
16ALL	.	.
16f#	.	.
16c	16eeeLL	.
16f#JJ	16ddd#JJ	.
16G#LL	4eee)	.
16e	.	.
16B	.	.
16eJJ	.	.
16G#LL	4r	.
16e	.	.
16B	.	.
16eJJ	.	.
=75	=75	=75
16GnLL	2b- 2bb-	.
16d	.	.
16B-	.	.
16dJJ	.	.
16GLL	.	.
16d	.	.
16B-	.	.
16dJJ	.	.
16GLL	2g 2gg	.
16e-	.	.
16B-	.	.
16e-JJ	.	.
16GLL	.	.
16e-	.	.
16B-	.	.
16e-JJ	.	.
=76	=76	=76
16GLL	(4.ccc#	.
16en	.	.
16B-	.	.
16eJJ	.	.
16GLL	.	.
16e	.	.
16B-	16dddLL	.
16eJJ	16ccc#JJ	.
16F#LL	4ddd)	.
16d	.	.
16A	.	.
16dJJ	.	.
16F#LL	4r	.
16d	.	.
16A	.	.
16dJJ	.	.
=77	=77	=77
16FnLL	(4.bbn	.
16d	.	.
16A-	.	.
16dJJ	.	.
16FLL	.	.
16d	.	.
16A-	16cccnLL	.
16dJJ	16bbJJ	.
16ELL	4ccc)	.
16c	.	.
16G	.	.
16cJJ	.	.
16ELL	4r	.
16c	.	.
16G	.	.
16cJJ	.	.
=78	=78	=78
16DLL	(4.gg#	.
16B	.	.
16F	.	.
16BJJ	.	.
16DLL	.	.
16B	.	.
16F	16aaLL	.
16BJJ	16gg#JJ	.
16CLL	4aa)	.
16An	.	.
16E	.	.
16AJJ	.	.
16CLL	4r	.
16A	.	.
16E	.	.
16AJJ	.	.
=79	=79	=79
4DD# 4D#	8r	.
.	8aa'L	.
4r	8ccc'	.
.	8ff#'J	.
2r	8aa'L	.
.	8dd#'	.
.	8ff#'	.
.	8cc'J	.
=80	=80	=80
8r	8dd#'L	.
8A'L	8a'	.
8c'	8cc'	.
8F#J	8f#'J	.
8A'L	8a'L	.
8D#'	8d#'	.
8F#'	8f#'	.
8AA'J	8A'J	.
=81	=81	=81
*^	*	*
8c'L	8C'L	2.ryy	.
8F#'	8FF#'	.	.
8A'	8AA'	.	.
8D#'J	8DD#J	.	.
4E	4EE	.	.
4ryy	4EE 4E	4b 4ddn 4ee 4gg#	.
*v	*v	*	*
=82	=82	=82
4AA 4A	4cc 4ee 4aa	.
*clefG2	*	*
4a'	8r	.
.	(8cc	p
4b'	8eeL	.
.	8ddJ)	.
4g#'	8r	.
.	(8b	.
=83	=83	=83
4a'	8ddL	.
.	8ccJ)	.
4fn'	8r	.
.	(8a	.
4d'	8ccL	.
.	8bJ)	.
4e'	8r	.
.	(8g#	.
=84	=84	=84
4c'	8bL	.
.	8aJ)	.
*clefF4	*	*
4AA 4A	(16ccLL	f
.	16dd	.
.	16ee	.
.	16ccJJ	.
4BB 4B	16ddLL	.
.	16ee	.
.	16ff	.
.	16ddJJ	.
4GG# 4G#	16bLL	.
.	16cc	.
.	16dd	.
.	16bJJ	.
=85	=85	=85
4AA 4A	16ccLL	.
.	16dd	.
.	16ee	.
.	16ccJJ	.
4FF 4F	16aLL<	.
.	16b	.
.	16cc	.
.	16aJJ	.
4DD 4D	16bLL	.
.	16cc	.
.	16dd	.
.	16bJJ	.
4EE 4E	16g#LL	.
.	16a	.
.	16b	.
.	16g#JJ)	.
=86	=86	=86
.	(32AqLLL	.
.	32cq	.
.	32eqJJJ	.
2AAA 2AA	2a)	.
2EE	2e	.
=87	=87	=87
(4.C	(4.cc	.
16DLL	16ddLL	.
16BBJJ	16bJJ	.
4AA)	4a)	.
4r	4r	.
*clefG2	*	*
=88	=88	=88
(4.cc	(4.ee	p
16ddLL	16ffLL	.
16bJJ	16ddJJ	.
4a)	4cc)	.
4r	4r	.
=89	=89	=89
(4.ee	(4.ccc	pp
16ffLL	16dddLL	.
16ddJJ	16bbJJ	.
4cc)	4aa)	.
4r	4r	.
*clefF4	*	*
=90	=90	=90
.	(<32BqLLL	f
.	32dq	.
.	32gqJJJ	.
2BBB 2BB	2b)	.
2GGG 2GG	2g	.
=91	=91	=91
(4.D	(4.dd	.
16ELL	16eeLL	.
16CJJ	16ccJJ	.
4BB)	4b)	.
4r	4r	.
*clefG2	*	*
=92	=92	=92
(4.dd	(4.ffn	p
16eeLL	16ggLL	.
16ccJJ	16eeJJ	.
4b)	4dd)	.
4r	4r	.
=93	=93	=93
(4.ff	(4.ddd	pp
16ggLL	16eeeLL	.
16eeJJ	16cccJJ	.
4dd)	4bb)	.
4r	4r	.
*clefF4	*	*
=94	=94	=94
.	(>/32cqLLL	.
.	32eq	.
.	32gqJJJ	.
2CC 2C	2cc)	f
2GGG 2GG	2g	.
=95	=95	=95
(4.E	(4.ee	.
16FLL	16ffLL	.
16DJJ	16ddJJ	.
4C)	4cc)	.
4r	4r	.
*clefG2	*	*
=96	=96	=96
(8eL	4gg	p
8g	.	.
8e	4gg	.
8gJ	.	.
8c#L	4r	.
8g	.	.
8c#	4aa	.
8gJ	.	.
=97	=97	=97
8dL	(16ggLK	.
.	8.ffJ)	.
8g	.	.
8d	4ff	.
8gJ	.	.
8BL	4r	.
8g	.	.
8B	4gg	.
8gJ	.	.
=98	=98	=98
8cnL	(16ffLK	.
.	8.eeJ)	.
8g	.	.
8c	4ee	.
8gJ	.	.
8eL)	4r	.
8g	.	.
8e	(8ggL	.
8gJ	8eeJ)	.
=99	=99	=99
1f 1a	(8cc#L	.
.	8dd	.
.	8ff	.
.	8eeJ	.
.	8cc#L	.
.	8dd	.
.	8ff	.
.	8eeJ	.
*clefF4	*	*
=100	=100	=100
4r	8cc#L	.
.	8dd	.
4F 4A 4d	8ff	.
.	8aaJ	.
4G 4c 4e	8ggL	.
.	8ee	.
4G 4B 4d	8ff	.
.	8ddJ)	.
=101	=101	=101
.	(>32cqLLL	.
.	32e-q	.
.	32gqJJJ	.
2CC 2C	2cc)	f
2GGG 2GG	2g	.
=102	=102	=102
(4.E-	(4.ee-	.
16FLL	16ffLL	.
16DJJ	16ddJJ	.
4C)	4cc)	.
4r	4r	.
*clefG2	*	*
=103	=103	=103
(8e-L	(16ff#LK	p
.	8.ggJ)	.
8g	.	.
8e-	4gg	.
8gJ	.	.
8cL	8r	.
8g	(8ccL	.
8c	8ccc	.
8gJ	8aa-J	.
=104	=104	=104
8dL	8ggL	.
8g	8ff#J	.
8d	4ffn)	.
8gJ	.	.
8BL	8r	.
8g	(8ffL	.
8B)	8aa-	.
8gJ	8ggJ	.
=105	=105	=105
(8B- 8d-L	8ffL	.
8g	8eenJ)	.
8B- 8d-	(2ddd-	fp
8gJ	.	.
8B- 8d-L	.	.
8g	.	.
8B- 8d-	4ee)	.
8gJ	.	.
=106	=106	=106
8A- 8cL	(4gg	.
8en	.	.
8A- 8c	4ff)	.
8fJ	.	.
8A- 8cL	8r	.
8f	8ffL	.
8A-) 8c	(8ccc	.
8fJ	8aa-J	.
=107	=107	=107
(8c 8e-L	8ggL	.
8a-	8ff#J)	.
8c 8e-	(2eee-	fp
8a-J	.	.
8c 8e-L	.	.
8a-	.	.
8c) 8e-	4ff#)	.
8a-J	.	.
=108	=108	=108
4Bn 4d	(8aanL	pp
.	8gg	.
4r	8ff#	.
.	8ggJ	.
2r	8ff#L	.
.	8gg	.
.	8ff#	.
.	8ggJ	.
=109	=109	=109
1r	8ff#)	.
.	8g (8ggL	.
.	8f# 8ff#	.
.	8g 8ggJ	.
.	8g# 8gg#L	.
.	8a 8aa	.
.	8b- 8bb-	.
.	8bn 8bbnJ)	.
*clefF4	*	*
=110	=110	=110
(8AnL	8cc 8cccL	f
8c	8cc 8cccJ	.
8A	2cc 2ccc	.
8cJ	.	.
8FL	.	p
8c	.	.
8F	(8bbL	.
8cJ	8aaJ)	.
=111	=111	=111
8EnL	8cc 8ggL	f
8c	8cc 8ggJ	.
8E	2cc 2gg	.
8cJ	.	.
8CL	.	p
8c	.	.
8C	(8ffL	.
8cJ	[8eeJ	.
=112	=112	=112
8FL	16eeLL]	.
.	16dd	.
8A	16ff	.
.	16eeJJ	.
8F	16ggLL	.
.	16ff	.
8dJ)	16ee	.
.	16ddJJ	.
(8GL	4cc)	.
8e)	.	.
(8G	4bt	.
8dJ)	.	.
.	(16aqLL	.
.	16bqJJ	.
=113	=113	=113
(8AL	8cc) 8cccL	f
8c	8cc 8cccJ	.
8A	4.cc 4.ccc	.
8cJ	.	.
8FL	.	.
8c	(16dddLL	p
.	16cccJJ	.
8F	8bb'L)	.
8cJ	8aa'J	.
=114	=114	=114
8EL	8cc 8ggL	f
8c	8cc 8ggJ	.
8E	4.cc 4.gg	.
8cJ	.	.
8CL	.	.
8c	(16aaLL	p
.	16ggJJ)	.
8C	8ff'L	.
8cJ	([8eeJ	.
=115	=115	=115
8FL	16eeLL]	.
.	16dd	.
8c	16aa	.
.	16gg#JJ	.
8F	16bbLL	.
.	16aa	.
8dJ)	16ggn	.
.	16ffJJ	.
(8GL	4ee)	.
8c)	.	.
(8G	(4ddT	.
8BJ)	.	.
.	16ccqLL	.
.	16ddqJJ	.
=116	=116	=116
8c 8eL	4cc)	fp
8c 8e	.	.
8c 8e	8r	.
.	(32ddqq	.
8c 8eJ	()16ccLL	.
.	16bJJ)	.
8c 8eL	8cc'L	.
8c 8e	8dd#'	<
8c 8e	8ee'	.
8c 8eJ	8ff#'J	.
=117	=117	=117
8c 8eL	8gg'L	.
8c 8e	8bb'	.
8c 8e	8ccc'	.
8c 8eJ	8ddd#'J	.
8c 8eL	4eee	.
8c 8e	.	.
8c 8e	4r	.
8c 8eJ	.	.
=118	=118	=118
8B 8dL	4ddn: 4gg: 4dddn:	fp
8B 8d	.	.
8B 8d	8r	.
.	(32ccqq	.
8B 8dJ	()16bLL	.
.	16aJJ)	.
8B 8dL	8b'L	.
8B 8d	8cc#'	<
8B 8d	8dd'	.
8B 8dJ	8ff#'J	.
=119	=119	=119
8B 8dL	8gg'L	.
8B 8d	8aa#'	.
8B 8d	8bb'	.
8B 8dJ	8ccc#'J	.
8B 8dL	4ddd	.
8B 8d	.	.
8B 8d	4r	.
8B 8dJ	.	.
=120	=120	=120
8F# 8A 8dL	4ccn: 4ff#: 4cccn:	fp
8F# 8A 8d	.	.
8F# 8A 8d	8r	.
.	(32bqq	.
8F# 8A 8dJ	(16aLL)	.
.	16g#JJ)	.
8F# 8A 8dL	8a'L	.
8F# 8A 8d	8b'	<
8F# 8A 8d	8cc'	.
8F# 8A 8dJ	8ee#'J	.
=121	=121	=121
8F# 8A 8dL	8ff#'L	.
8F# 8A 8d	8gg#'	.
8F# 8A 8d	8aa'	.
8F# 8A 8dJ	8bb'J	.
8F# 8A 8dL	4ccc	.
8F# 8A 8d	.	.
8F# 8A 8d	4r	.
8F# 8A 8dJ	.	.
=122	=122	=122
2G 2d	(16bbLL	f
.	16aa	.
.	16ccc	.
.	16bbJJ	.
.	8dddL)	.
.	8ff#'J	.
2G 2B	(16ggLL	.
.	16ff#	.
.	16aa	.
.	16ggJJ	.
.	8bbL)	.
.	8dd#'J	.
=123	=123	=123
2G 2c	(16eeLL	.
.	16dd#	.
.	16ff#	.
.	16eeJJ	.
.	8ggL)	.
.	8b'J	.
2G 2f#	(16ccLL	.
.	16b	.
.	16ddn	.
.	16ccJJ	.
.	8eeL)	.
.	8a'J	.
=124	=124	=124
4G 4g	(16bLL>	.
.	16a	.
.	16cc	.
.	16bJJ	.
8r	8ddL)	.
8F#'	8f#'J	.
(16GLL	(16gLL	.
16F#	16f#	.
16A	16a	.
16GJJ	16gJJ	.
8BL)	8bL)	.
8D'J	8d'J	.
=125	=125	=125
8.EL<	8.eL	.
16Dk	16dk	.
8.C	8.c	.
16BBJk	16BJk	.
8.CL<	8.cL	.
16AAk	16A<k	.
8.GG	8.G<	.
16FF#Jk	16F#<Jk	.
=126	=126	=126
(8GGL<	(>8G<L	.
16BBL	16B<L	.
16DJJ	16dJJ	.
8G'L)	8g'L)	.
8G'J	8g'J	.
4G	4g	.
4r	4r	.
=127	=127	=127
1r	(8ff#L	p
.	8gg	.
.	8ff#	.
.	8ggJ	.
.	8ff#L	.
.	8gg	.
.	8ff#	.
.	8ggJ	.
=128	=128	=128
1r	8ffnL	<
.	8gg	.
.	8ee	.
.	8ggJ	.
.	8ffL	.
.	8gg	.
.	8dd	.
.	8ggJ	.
*clefG2	*	*
=129	=129	=129
8e'L	8ccL	p
8f'	8gg	.
8g'	8cc	.
8e'J	8ggJ	.
2c	8eeL	.
.	8gg	.
.	8ee	.
.	8ggJ	.
=130	=130	=130
8d'L	8ffL	.
8e'	8gg	.
8f'	8ff	.
8d'J	8ggJ	.
2B	8ddL	.
.	8gg	.
.	8dd	.
.	8ggJ	.
=131	=131	=131
(16dLK	8eeL	.
8cJ)	.	.
.	8gg	.
16r	.	.
(16fLK	8cc	.
8eJ)	.	.
.	8ggJ	.
16r	.	.
(16c#LK	8bL	.
8dJ)	.	.
.	8gg	.
16r	.	.
4r	8dd	.
.	8ggJ	.
=132	=132	=132
(16fLK	8ccL	.
8eJ)	.	.
.	8gg	.
16r	.	.
(16gLK	8cc	.
8f#J)	.	.
.	8aaJ	.
16r	.	.
(16aLK	8bL	.
8gJ)	.	.
.	8dd	.
16r	.	.
4r	8ff#	.
.	8ggJ)	.
*clefF4	*	*
=133	=133	=133
(8CL	8ee'L	.
8G	8ffn'	.
8C	8gg'	.
8GJ	8ee'J	.
8EL	2cc	.
8G	.	.
8E	.	.
8GJ	.	.
=134	=134	=134
8FL	8dd'L	.
8G	8ee'	.
8F	8ff'	.
8GJ	8dd'J	.
8DL	2bb	.
8G	.	.
8D	.	.
8GJ	.	.
=135	=135	=135
8EL	(16cccLK	.
.	8.bbJ)	.
8G	.	.
8C	(16aaLK	.
.	8.ggJ)	.
8GJ	.	.
8DL	(16eeLK	.
.	8.ffJ)	.
8G	.	.
8BB	4r	.
8GJ	.	.
=136	=136	=136
8CL	(16ffLK	.
.	8.eeJ)	.
8G	.	.
8AA	(16ddLK	.
.	8.ccJ)	.
8F#J	.	.
8GGL<	(16aaLK	.
.	8.ggJ)	.
8G	.	.
8FFn	4r	.
8FnJ)	.	.
=137	=137	=137
(16EELL	2g 2gg	f
16C	.	.
16BB	.	.
16CJJ	.	.
16DLL	.	.
16C	.	.
16BB	.	.
16CJJ	.	.
4EE)	(8ff'L	.
.	8ee'	.
4r	8dd'	.
.	8cc'J)	.
=138	=138	=138
(16FFLL	2a 2aa	.
16C	.	.
16BB	.	.
16CJJ	.	.
16DLL	.	.
16C	.	.
16BB	.	.
16CJJ	.	.
4FF)	(8gg'L	.
.	8ff'	.
4r	8ee'	.
.	8dd'J)	.
=139	=139	=139
(8GGL	(16eeLL	p
.	16ff	.
8C	16gg	.
.	16eeJJ	.
8E	8cc')	.
8CJ	8r	.
8GGL	(16ddLL	.
.	16ee	.
8D	16ff	.
.	16ddJJ	.
8F	8b')	.
8DJ)	8r	.
=140	=140	=140
(16ELL	2g 2gg	f
16c	.	.
16B	.	.
16cJJ	.	.
16dLL	.	.
16c	.	.
16B	.	.
16cJJ	.	.
4E)	(16ffLL	.
.	16gg	.
.	16ff	.
.	16eeJJ	.
4r	16ddLL	.
.	16ee	.
.	16dd	.
.	16ccJJ)	.
=141	=141	=141
(16ALL	2cc 2ccc	.
16f	.	.
16e	.	.
16fJJ	.	.
16gLL	.	.
16f	.	.
16e	.	.
16fJJ	.	.
4A)	(16bbLL	.
.	16ccc	.
.	16bb	.
.	16aaJJ	.
4r	16ggLL	.
.	16aa	.
.	16gg	.
.	16ffJJ	.
=142	=142	=142
(8GL	8eeL	.
8c	8ccJ)	.
8A	4ffz	.
8cJ	.	.
8GL	(8eeL	.
8c	8ccJ)	.
8F	4aaz	.
8cJ	.	.
=143	=143	=143
8EL	(8ggL	.
8c	8ccJ	.
8A	4ffz)	.
8cJ	.	.
8GL	(8eeL	.
8c	8ccJ)	.
8F	4aaz	.
8cJ)	.	.
=144	=144	=144
8E 8G 8c#L	2b- 2bb-	f
8E 8G 8c#	.	.
8E 8G 8c#	.	.
8E 8G 8c#J	.	.
8E 8G 8c#L	4b- 4bb-	.
8E 8G 8c#	.	.
8E 8G 8c#	4b- 4bb-	.
8E 8G 8c#J	.	.
=145	=145	=145
4F 4A 4d	8a (8aaL	.
.	8gg'J)	.
4r	(8ffLM	.
.	8ee'J)	.
2r	(8ddLM	.
.	8cc'J)	.
.	(8bnL<m	.
.	8a'J)	.
=146	=146	=146
(16GLL	(8gL<	.
16e	.	.
16cn	16aL	.
16eJJ	16bJJ	.
16GLL	16ccLL	.
16e	16dd	.
16c	16ee	.
16eJJ	16ffJJ	.
16GLL	16ff#LL	.
16e	16gg	.
16c	16aa	.
16eJJ	16ggJJ	.
16GLL	16ffnLL	.
16e	16ee	.
16c	16dd	.
16eJJ	16ccJJ)	.
=147	=147	=147
16GLL	1ddTT	.
16f	.	.
16B	.	.
16fJJ	.	.
16GLL	.	.
16f	.	.
16B	.	.
16fJJ	.	.
16GLL	.	.
16f	.	.
16B	.	.
16fJJ	.	.
16GLL	.	.
16f	.	.
16B	.	.
16fJJ)	.	.
.	(16ccqLL	.
.	16ddqJJ)	.
=148	=148	=148
4c 4e	4cc	.
*clefG2	*	*
4cc'	8r	.
.	(8ee	p
4dd'	8ggL	.
.	8ffJ)	.
4b'	8r	.
.	(8dd	.
=149	=149	=149
4cc'	8ffL	.
.	8eeJ)	.
4a'	8r	.
.	(8cc	.
4f'	8eeL	.
.	8ddJ)	.
4g'	8r	.
.	(8b	.
=150	=150	=150
4e'	8ddL	.
.	8ccJ)	.
*clefF4	*	*
4C# 4c#	(16eeLL	f
.	16ff	.
.	16gg	.
.	16eeJJ	.
4D 4d	16ffLL	.
.	16gg	.
.	16aa	.
.	16ffJJ	.
4BB 4B	16ddLL	.
.	16ee	.
.	16ff	.
.	16ddJJ	.
=151	=151	=151
4Cn 4cn	16eeLL	.
.	16ff	.
.	16gg	.
.	16eeJJ	.
4AA 4A	16ccLL	.
.	16dd	.
.	16ee	.
.	16ccJJ	.
4FF 4F	16ddLL	.
.	16ee	.
.	16ff	.
.	16ddJJ	.
4GG 4G	16bLL	.
.	16cc	.
.	16dd	.
.	16bJJ)	.
=152	=152	=152
.	(>32cqLLL	.
.	32eq	.
.	32gqJJJ	.
2CC 2C	2cc)	.
2GG	2g	.
=153	=153	=153
(4.E	(4.ee	.
16FLL	16ffLL	.
16DJJ	16ddJJ	.
4C)	4cc)	.
4GG 4G	(16ddLL	.
.	16ff	.
.	16gg	.
.	16bbJJ	.
=154	=154	=154
4C 4c	16ccLL	.
.	16ee	.
.	16gg	.
.	16cccJJ	.
4GG 4G	16ddLL	.
.	16ff	.
.	16gg	.
.	16bbJJ	.
4C 4c	16ccLL	.
.	16ee	.
.	16gg	.
.	16cccJJ	.
4GG 4G	16ddLL	.
.	16ff	.
.	16gg	.
.	16bbJJ)	.
=155	=155	=155
4C 4c	4ccc	.
4CC 4C	4e 4g 4cc	.
4CC 4C	4e 4g 4cc	.
4r	4r	.
==	==	==
*-	*-	*-
!!!RDF**kern: > = above
!!!RDF**kern: < = below
!!!YOR: Alte Mozart-Ausgabe, Band 20, Breitkopf &amp; H&auml;rtel 1877-1883.
!!!YOY: 1878
!!!YEC: 2018 Craig Stuart Sapp
!!!YEM: Licence: (CC BY-NC-SA 4.0) https://creativecommons.org/licenses/by-nc-sa/4.0
!!!YER: 2018
!!!ENC: Craig Stuart Sapp
!!!END: 2009/09/24
!!!EED: Craig Stuart Sapp
!!!EEV: 2018/06/16
!!!EFL: 31/69
!!!AGN: piano sonata
!!!AFR: sonata-allegro
!!!title: @{OTL}, K 309 (284b), mvmt. @{OMV}
